X:0471
T:Saw ye nae my Peggy.
M:3/2
L:1/8
N:bar 6 might be |E2 A2 A3B (TcB)(TAG)| but I think the
N:engraver has tried to erase the first trill on the plate
Q:1/2=72
I: :: :: :: ::
Z:Jack Campin * www.campin.me.uk * 2009
K:E Minor
 Te3d   (e>fg).e   (dB)(TAG)   |  d3   e     (de)(dB)                (cB)(TAG) |\
 Te3d    e2(d/e/g) (dB)(TAG)   |  A>G`AB     (cB)(TAG)             {D}E4      ::
  D>EG>A G3A        G/A/B  TAG |  E2  A2      A3B                    (cB)(TAG) |\
  D>EG>A G3A   ({GA}B2)     AG | (AB)(ge)     dB``TA>G                E4      ::
(Te>de)g e>ged      Bd``````BG |  d>B(de/f/) (g/f/)(e/d/) (e/d/c/B/) (cB)(TAG)|\
  e>def  g>fga ({ga}b2)     G>B|  A>c`B>g    (dB)(TAG)            ({D}E4)     ::
  d>eg>a g3a        g/a/b   ag |  e2  a>b     a3b                    (c'b)(Tag)|\
  d>eg>a g3a        g/a/b (Tag)|(Ta>g`a)b     c'/b/a       b/a/g   {d}e4      :|

